icons/gdevelop-dark.svg

<svg width="256" height="256" viewBox="0 0 256 256" fill="none" xmlns="http://www.w3.org/2000/svg">
<rect width="256" height="256" rx="60" fill="#282828"/>
<path d="M130.816 167.335C116.953 167.335 103.606 163.587 91.8154 155.425C83.5971 149.738 74.0854 136.897 74.0854 115.127C74.0854 74.74 94.7156 60 136.174 60H210.813L218 83.0034H141.862C114.499 83.0034 98.2283 85.1371 98.2283 115.127C98.2283 125.033 101.022 132.083 106.771 136.677C116.489 144.441 135.376 144.771 146.917 143.659C146.917 143.659 151.652 128.432 152.432 125.96C153.345 123.064 152.945 122.373 150.096 122.373C145.98 122.373 138.581 122.373 130.727 122.373C125.224 122.373 119.817 119.603 119.817 112.95C119.817 106.525 124.847 102.795 131.743 102.795C143.683 102.795 168.274 102.795 172.877 102.795C178.911 102.795 185.068 103.661 181.927 113.213L165.289 163.671C165.289 163.671 151.697 167.335 130.816 167.335Z" fill="white"/>
<path d="M177.413 175.901C169.028 181.772 156.607 185.016 135.531 185.016C99.2041 185.016 72.6174 171.964 61.7775 146.658C56.6527 134.697 57.146 121.14 57.146 102.805H33.0043C33.0043 122.139 32.6717 137.298 37.8439 151.26C51.4063 187.887 86.3315 207.564 133.248 207.564C178.662 207.564 197.481 194.614 209.748 175.901H177.413Z" fill="white"/>
<path d="M152.296 126.394C151.219 129.823 146.917 143.659 146.917 143.659C135.376 144.772 116.489 144.441 106.771 136.677C103.506 134.067 101.196 130.662 99.808 126.394H75.0102C77.591 141.441 85.1308 150.8 91.8154 155.425C103.606 163.587 116.952 167.336 130.816 167.336C151.697 167.336 165.29 163.673 165.29 163.673L177.581 126.394H152.296Z" fill="white"/>
<path d="M37.8445 151.26C51.4069 187.887 86.3321 207.564 133.249 207.564C178.662 207.564 197.481 194.614 209.75 175.899H177.415C169.029 181.772 156.608 185.016 135.532 185.016C99.2057 185.016 72.6192 171.963 61.7793 146.656C59.1319 140.476 57.9892 133.863 57.4982 126.394H33.325C33.8027 135.39 34.9746 143.51 37.8445 151.26Z" fill="white"/>
</svg>

<svg xmlns="http://www.w3.org/2000/svg" width="256" height="256" fill="none"><rect width="256" height="256" fill="#282828" rx="60"/><path fill="#fff" d="M130.816 167.335c-13.863 0-27.21-3.748-39-11.91-8.219-5.687-17.73-18.528-17.73-40.298C74.085 74.74 94.715 60 136.173 60h74.639L218 83.003h-76.138c-27.363 0-43.634 2.134-43.634 32.124 0 9.906 2.794 16.956 8.543 21.55 9.718 7.764 28.605 8.094 40.146 6.982 0 0 4.735-15.227 5.515-17.699.913-2.896.513-3.587-2.336-3.587h-19.369c-5.503 0-10.91-2.77-10.91-9.423 0-6.425 5.03-10.155 11.926-10.155h41.134c6.034 0 12.191.866 9.05 10.418l-16.638 50.458s-13.592 3.664-34.473 3.664"/><path fill="#fff" d="M177.413 175.901c-8.385 5.871-20.806 9.115-41.882 9.115-36.327 0-62.914-13.052-73.753-38.358-5.125-11.961-4.632-25.518-4.632-43.853H33.004c0 19.334-.332 34.493 4.84 48.455 13.562 36.627 48.488 56.304 95.404 56.304 45.414 0 64.233-12.95 76.5-31.663z"/><path fill="#fff" d="M152.296 126.394c-1.077 3.429-5.379 17.265-5.379 17.265-11.541 1.113-30.428.782-40.146-6.982-3.265-2.61-5.575-6.015-6.963-10.283H75.01c2.581 15.047 10.12 24.406 16.805 29.031 11.791 8.162 25.137 11.911 39.001 11.911 20.881 0 34.474-3.663 34.474-3.663l12.291-37.279z"/><path fill="#fff" d="M37.845 151.26c13.562 36.627 48.487 56.304 95.404 56.304 45.413 0 64.232-12.95 76.501-31.665h-32.335c-8.386 5.873-20.807 9.117-41.883 9.117-36.326 0-62.913-13.053-73.753-38.36-2.647-6.18-3.79-12.793-4.28-20.262H33.324c.478 8.996 1.65 17.116 4.52 24.866"/></svg>
